src/topics/icons/cakephp.svg

<svg height="255" preserveAspectRatio="xMidYMid" viewBox="0 0 256 255" width="256" xmlns="http://www.w3.org/2000/svg"><path d="m142.262 17.199 18.881-13.036 9.979 20.605 20.551-7.707 4.817 21.388 22.285-1.388-1.55 22.613 21.469 2.938-7.429 21.225 20.164 10.367-13.062 16.98 17.633 15.755-17.306 14.122 12.898 18.776-19.919 10.367 8.245 22.367-24.326 1.633 6.041 23.02-25.143-1.224-4.572 21.796-20.326-7.755-10.612 20-18.041-12.816-14.612 17.142-15.184-16.979-17.878 12.734-10.775-19.918-20.735 7.674-2.122-22.939-24.653 2.694 1.632-24.245-23.428-.245 9.551-22.694-20.245-10.612 11.836-18.449-16.326-14.123 16.408-14.939-11.918-17.469 19.918-11.347-7.184-19.755 21.47-4.816-1.388-22.041 22.449 1.633 4.49-22.205 20.735 8.327 10.04-20.571 18.123 12.571 14.857-16.653z" fill="#c82334"/><path d="m213.096 161.97c0 20.184-37.184 36.547-83.053 36.547s-83.053-16.363-83.053-36.547c0-20.185 37.184-36.548 83.053-36.548s83.053 16.363 83.053 36.548" fill="#b8271a"/><path d="m125.763 61.671 27.001 47.373-1.514 38.504 41.398 17.497 13.684-81.182z" fill="#ccb463"/><path d="m206.332 83.863 3.921-11.087s-7.489 48.579-8.523 55.076-8.122 36.473-8.122 36.473l-.96.72 3.914-23.534-50.059-17.425 2.068-5.832 49.246 15.874 3.027-17.499-62.536-20.008.074-6.793 63.348 19.344z" fill="#dfd26f"/><path d="m46.073 78.305 9.729 70.004s.118 20.048 26.376 33.768c26.257 13.72 67.417 7.806 67.417 7.806l3.169-80.839c-7.935 1.188-16.391 1.83-25.168 1.83-41.158 0-75.271-14.111-81.523-32.569" fill="#e6d273"/><g fill="#fff"><path d="m150.542 164.69c-38.44 2.957-71.925-3.681-96.645-30.057l1.302 9.61c20.277 22.472 53.998 29.375 95.047 27.839z"/><path d="m151.665 137.191c-38.44 2.957-76.346.064-101.066-26.312l1.171 8.535c20.277 22.472 58.433 26.705 99.481 25.169z"/><path d="m210.153 72.197c0 4.066-1.339 7.985-3.821 11.666l-80.569-22.192 27.001 47.373c-7.935 1.188-16.391 1.83-25.168 1.83-45.595 0-82.557-17.316-82.557-38.677 0-21.36 36.962-38.676 82.557-38.676s82.557 17.316 82.557 38.676"/><g transform="translate(17 180)"><path d="m30.961 13.999c-2.81-1.726-5.364-2.364-8.43-2.364-7.281 0-11.56 5.237-11.56 14.817 0 9.772 4.407 15.072 11.943 15.072 2.938 0 5.621-.894 8.367-2.554l.447 8.559c-3.257 1.276-6.707 1.852-10.411 1.852-12.773 0-21.075-8.751-21.075-22.929 0-14.05 8.366-22.864 20.756-22.864 3.513 0 6.962.703 10.474 2.107z"/><path d="m62.13 41.908c0 2.235.063 4.47.383 6.77h-9.069l-.383-4.279c-2.555 3.321-5.813 4.982-9.772 4.982-5.684 0-9.58-4.024-9.58-10.156 0-7.28 5.493-11.432 15.711-11.432h3.257v-.958c0-3.512-2.235-5.364-6.386-5.364-3.002 0-6.068 1.085-8.622 3.064l-.511-7.344c4.087-1.532 7.919-2.298 11.432-2.298 10.921 0 13.54 4.47 13.54 14.816zm-12.327-8.877c-4.598 0-7.025 1.788-7.025 5.236 0 2.747 1.661 4.408 4.343 4.408 3.896 0 5.556-2.555 5.556-7.665v-1.852c-1.149-.127-2.171-.127-2.874-.127z"/><path d="m78.289.841v28.166l8.558-13.412h9.836l-9.963 15.072 10.857 18.011h-10.73l-8.558-15.584v15.584h-9.643v-47.837z"/><path d="m115.268 42.611c2.939 0 5.812-.895 8.687-2.556l.319 7.09c-3.449 1.533-7.089 2.236-10.346 2.236-10.347 0-16.414-6.196-16.414-17.053 0-10.475 5.748-17.435 14.178-17.435 8.942 0 14.242 6.321 14.242 17.69 0 .703 0 1.405-.064 2.172h-18.648c.51 5.236 3.129 7.856 8.046 7.856zm1.725-14.689c0-4.088-1.725-6.451-4.662-6.451-3.384 0-4.982 2.554-5.301 7.918h9.899c0-.83.064-1.276.064-1.467z"/></g></g><g transform="translate(149 182)"><path d="m12.762.813c5.246 0 9.265.34 12.128 2.043 4.428 2.589 6.744 7.087 6.744 13.082 0 9.88-5.791 14.853-17.237 14.853h-2.589v17.306h-10.833v-47.284zm-.954 22.007h2.521c4.838 0 6.745-1.977 6.745-7.154 0-5.315-2.181-6.95-7.018-6.95h-2.248z"/><path d="m44.645.813v18.6h11.514v-18.6h10.833v47.284h-10.833v-20.099h-11.514v20.099h-10.833v-47.284z"/><path d="m84.091.813c5.246 0 9.266.34 12.128 2.043 4.428 2.589 6.744 7.087 6.744 13.082 0 9.88-5.791 14.853-17.237 14.853h-2.589v17.306h-10.833v-47.284zm-.954 22.007h2.521c4.838 0 6.745-1.977 6.745-7.154 0-5.315-2.18-6.95-7.018-6.95h-2.248z"/></g></svg>

<?xml version="1.0" encoding="UTF-8" standalone="no"?>
<svg width="256px" height="255px" viewBox="0 0 256 255" version="1.1" xmlns="http://www.w3.org/2000/svg" xmlns:xlink="http://www.w3.org/1999/xlink" preserveAspectRatio="xMidYMid">
	<g>
		<path d="M142.262,17.199 L161.143,4.163 L171.122,24.768 L191.673,17.061 L196.49,38.449 L218.775,37.061 L217.225,59.674 L238.694,62.612 L231.265,83.837 L251.429,94.204 L238.367,111.184 L256,126.939 L238.694,141.061 L251.592,159.837 L231.673,170.204 L239.918,192.571 L215.592,194.204 L221.633,217.224 L196.49,216 L191.918,237.796 L171.592,230.041 L160.98,250.041 L142.939,237.225 L128.327,254.367 L113.143,237.388 L95.265,250.122 L84.49,230.204 L63.755,237.878 L61.633,214.939 L36.98,217.633 L38.612,193.388 L15.184,193.143 L24.735,170.449 L4.49,159.837 L16.326,141.388 L0,127.265 L16.408,112.326 L4.49,94.857 L24.408,83.51 L17.224,63.755 L38.694,58.939 L37.306,36.898 L59.755,38.531 L64.245,16.326 L84.98,24.653 L95.02,4.082 L113.143,16.653 L128,0 L142.262,17.199" fill="#C82334"></path>
		<path d="M213.096,161.97 C213.096,182.154 175.912,198.517 130.043,198.517 C84.174,198.517 46.99,182.154 46.99,161.97 C46.99,141.785 84.174,125.422 130.043,125.422 C175.912,125.422 213.096,141.785 213.096,161.97" fill="#B8271A"></path>
		<path d="M125.763,61.671 L152.764,109.044 L151.25,147.548 L192.648,165.045 L206.332,83.863 L125.763,61.671" fill="#CCB463"></path>
		<path d="M206.332,83.863 L210.253,72.776 C210.253,72.776 202.764,121.355 201.73,127.852 C200.696,134.349 193.608,164.325 193.608,164.325 L192.648,165.045 L196.562,141.511 L146.503,124.086 L148.571,118.254 L197.817,134.128 L200.844,116.629 L138.308,96.621 L138.382,89.828 L201.73,109.172 L206.332,83.863" fill="#DFD26F"></path>
		<path d="M46.073,78.305 L55.802,148.309 C55.802,148.309 55.92,168.357 82.178,182.077 C108.435,195.797 149.595,189.883 149.595,189.883 L152.764,109.044 C144.829,110.232 136.373,110.874 127.596,110.874 C86.438,110.874 52.325,96.763 46.073,78.305" fill="#E6D273"></path>
		<path d="M150.542,164.69 C112.102,167.647 78.617,161.009 53.897,134.633 L55.199,144.243 C75.476,166.715 109.197,173.618 150.246,172.082 L150.542,164.69" fill="#FFFFFF"></path>
		<path d="M151.665,137.191 C113.225,140.148 75.319,137.255 50.599,110.879 L51.77,119.414 C72.047,141.886 110.203,146.119 151.251,144.583 L151.665,137.191" fill="#FFFFFF"></path>
		<path d="M210.153,72.197 C210.153,76.263 208.814,80.182 206.332,83.863 L125.763,61.671 L152.764,109.044 C144.829,110.232 136.373,110.874 127.596,110.874 C82.001,110.874 45.039,93.558 45.039,72.197 C45.039,50.837 82.001,33.521 127.596,33.521 C173.191,33.521 210.153,50.837 210.153,72.197" fill="#FFFFFF"></path>
		<g transform="translate(17.000000, 180.000000)" fill="#FFFFFF">
			<path d="M30.961,13.999 C28.151,12.273 25.597,11.635 22.531,11.635 C15.25,11.635 10.971,16.872 10.971,26.452 C10.971,36.224 15.378,41.524 22.914,41.524 C25.852,41.524 28.535,40.63 31.281,38.97 L31.728,47.529 C28.471,48.805 25.021,49.381 21.317,49.381 C8.544,49.381 0.242,40.63 0.242,26.452 C0.242,12.402 8.608,3.588 20.998,3.588 C24.511,3.588 27.96,4.291 31.472,5.695 L30.961,13.999"></path>
			<path d="M62.13,41.908 C62.13,44.143 62.193,46.378 62.513,48.678 L53.444,48.678 L53.061,44.399 C50.506,47.72 47.248,49.381 43.289,49.381 C37.605,49.381 33.709,45.357 33.709,39.225 C33.709,31.945 39.202,27.793 49.42,27.793 L52.677,27.793 L52.677,26.835 C52.677,23.323 50.442,21.471 46.291,21.471 C43.289,21.471 40.223,22.556 37.669,24.535 L37.158,17.191 C41.245,15.659 45.077,14.893 48.59,14.893 C59.511,14.893 62.13,19.363 62.13,29.709 L62.13,41.908 L62.13,41.908 Z M49.803,33.031 C45.205,33.031 42.778,34.819 42.778,38.267 C42.778,41.014 44.439,42.675 47.121,42.675 C51.017,42.675 52.677,40.12 52.677,35.01 L52.677,33.158 C51.528,33.031 50.506,33.031 49.803,33.031 L49.803,33.031 Z"></path>
			<path d="M78.289,0.841 L78.289,29.007 L86.847,15.595 L96.683,15.595 L86.72,30.667 L97.577,48.678 L86.847,48.678 L78.289,33.094 L78.289,48.678 L68.646,48.678 L68.646,0.841 L78.289,0.841"></path>
			<path d="M115.268,42.611 C118.207,42.611 121.08,41.716 123.955,40.055 L124.274,47.145 C120.825,48.678 117.185,49.381 113.928,49.381 C103.581,49.381 97.514,43.185 97.514,32.328 C97.514,21.853 103.262,14.893 111.692,14.893 C120.634,14.893 125.934,21.214 125.934,32.583 C125.934,33.286 125.934,33.988 125.87,34.755 L107.222,34.755 C107.732,39.991 110.351,42.611 115.268,42.611 L115.268,42.611 Z M116.993,27.922 C116.993,23.834 115.268,21.471 112.331,21.471 C108.947,21.471 107.349,24.025 107.03,29.389 L116.929,29.389 C116.929,28.559 116.993,28.113 116.993,27.922 L116.993,27.922 Z"></path>
		</g>
		<g transform="translate(149.000000, 182.000000)" fill="#000000">
			<path d="M12.762,0.813 C18.008,0.813 22.027,1.153 24.89,2.856 C29.318,5.445 31.634,9.943 31.634,15.938 C31.634,25.818 25.843,30.791 14.397,30.791 L11.808,30.791 L11.808,48.097 L0.975,48.097 L0.975,0.813 L12.762,0.813 L12.762,0.813 Z M11.808,22.82 L14.329,22.82 C19.167,22.82 21.074,20.843 21.074,15.666 C21.074,10.351 18.893,8.716 14.056,8.716 L11.808,8.716 L11.808,22.82 L11.808,22.82 Z"></path>
			<path d="M44.645,0.813 L44.645,19.413 L56.159,19.413 L56.159,0.813 L66.992,0.813 L66.992,48.097 L56.159,48.097 L56.159,27.998 L44.645,27.998 L44.645,48.097 L33.812,48.097 L33.812,0.813 L44.645,0.813"></path>
			<path d="M84.091,0.813 C89.337,0.813 93.357,1.153 96.219,2.856 C100.647,5.445 102.963,9.943 102.963,15.938 C102.963,25.818 97.172,30.791 85.726,30.791 L83.137,30.791 L83.137,48.097 L72.304,48.097 L72.304,0.813 L84.091,0.813 L84.091,0.813 Z M83.137,22.82 L85.658,22.82 C90.496,22.82 92.403,20.843 92.403,15.666 C92.403,10.351 90.223,8.716 85.385,8.716 L83.137,8.716 L83.137,22.82 L83.137,22.82 Z"></path>
		</g>
	</g>
</svg>
